X: 40567
T: Tommy Reck's Fancy
R: hornpipe
M: 4/4
K: Gmajor
|:GABc dgfg|edBc dgfg|edBc dgfg|edge (3ded BD|ABce d2Bd|c2Ac (3BAG AD|GABc dgfg|ecAF G2GF:|
|:G2 (3ABc d2Bd|c2 Ac BGAD|G2GF GABc|dcdf e^def|gdBD ABce|d2Bd c2Ac|BGAF GABc|dgfg ecAD:|

